icons/clipboard-arrow-up-outline.svg

<svg xmlns="http://www.w3.org/2000/svg" width="24" height="24" viewBox="0 0 24 24">
  <path d="M16,1 C16.5128358,1 16.9355072,1.38604019 16.9932723,1.88337887 L17,2 L17,3 L18,3 C19.5976809,3 20.9036609,4.24891996 20.9949073,5.82372721 L21,6 L21,20 C21,21.5976809 19.75108,22.9036609 18.1762728,22.9949073 L18,23 L6,23 C4.40231912,23 3.09633912,21.75108 3.00509269,20.1762728 L3,20 L3,6 C3,4.40231912 4.24891996,3.09633912 5.82372721,3.00509269 L6,3 L7,3 L7,2 C7,1.48716416 7.38604019,1.06449284 7.88337887,1.00672773 L8,1 L16,1 Z M7,5 L6,5 C5.48716416,5 5.06449284,5.38604019 5.00672773,5.88337887 L5,6 L5,20 C5,20.5128358 5.38604019,20.9355072 5.88337887,20.9932723 L6,21 L18,21 C18.5128358,21 18.9355072,20.6139598 18.9932723,20.1166211 L19,20 L19,6 C19,5.44771525 18.5522847,5 18,5 L17,5 L17,6 C17,6.51283584 16.6139598,6.93550716 16.1166211,6.99327227 L16,7 L8,7 C7.48716416,7 7.06449284,6.61395981 7.00672773,6.11662113 L7,6 L7,5 Z M12,10 L12.019,10.001 L12.03,10.001 L12.081,10.003 L12.1489612,10.0110193 L12.1489612,10.0110193 C12.165949,10.0136281 12.1833753,10.0167022 12.2007258,10.0202401 C12.2227461,10.0246398 12.2444365,10.0298336 12.2658396,10.035721 C12.2814633,10.0400977 12.2968513,10.0447287 12.3121425,10.0497381 C12.3317977,10.0561225 12.3515792,10.0633157 12.3710585,10.071104 L12.4232215,10.0936734 L12.4232215,10.0936734 C12.4438914,10.1033766 12.4642939,10.1137939 12.484277,10.1248758 C12.4963944,10.1314988 12.5086131,10.1386069 12.5207088,10.1459955 C12.546275,10.1617187 12.5711307,10.1784901 12.5951593,10.1963135 C12.6012086,10.2007179 12.6070733,10.2051745 12.6128994,10.2097046 C12.6196628,10.2150711 12.6225624,10.2173721 12.625449,10.2196888 L12.7071068,10.2928932 L15.7071068,13.2928932 C16.0976311,13.6834175 16.0976311,14.3165825 15.7071068,14.7071068 C15.3466228,15.0675907 14.7793918,15.0953203 14.3871006,14.7902954 L14.2928932,14.7071068 L13,13.415 L13,17 C13,17.5522847 12.5522847,18 12,18 C11.4871642,18 11.0644928,17.6139598 11.0067277,17.1166211 L11,17 L11,13.415 L9.70710678,14.7071068 C9.31658249,15.0976311 8.68341751,15.0976311 8.29289322,14.7071068 C7.93240926,14.3466228 7.90467972,13.7793918 8.20970461,13.3871006 L8.29289322,13.2928932 L11.2928932,10.2928932 L11.37,10.224 L11.38,10.215 L11.4046934,10.1963346 L11.4046934,10.1963346 C11.4288693,10.1784901 11.453725,10.1617187 11.4793398,10.1460674 L11.5159379,10.1246712 L11.5159379,10.1246712 C11.5357061,10.1137939 11.5561086,10.1033766 11.5769009,10.0936538 L11.628664,10.0712255 L11.628664,10.0712255 C11.6484208,10.0633157 11.6682023,10.0561225 11.6882636,10.0495467 C11.7031487,10.0447287 11.7185367,10.0400977 11.734007,10.0358451 C11.7555635,10.0298336 11.7772539,10.0246398 11.7992059,10.0201652 C11.8166247,10.0167022 11.834051,10.0136281 11.8515331,10.0110178 L11.909968,10.003998 L11.909968,10.003998 C11.9208131,10.00307 11.9308872,10.0023256 11.9409686,10.0017331 L11.980824,10.0001802 L12,10 L12,10 Z M15,3 L9,3 L9,5 L15,5 L15,3 Z"/>
</svg>

<svg xmlns="http://www.w3.org/2000/svg" viewBox="0 0 24 24">
  <path d="M16 1a1 1 0 0 1 1 .88V3h1a3 3 0 0 1 3 2.82V20a3 3 0 0 1-2.82 3H6a3 3 0 0 1-3-2.82V6a3 3 0 0 1 2.82-3H7V2a1 1 0 0 1 .88-1H16zM7 5H6a1 1 0 0 0-1 .88V20a1 1 0 0 0 .88 1H18a1 1 0 0 0 1-.88V6a1 1 0 0 0-1-1h-1v1a1 1 0 0 1-.88 1H8a1 1 0 0 1-1-.88V5zm5 5h.08l.07.01a1.08 1.08 0 0 1 .22.06l.05.02a1.02 1.02 0 0 1 .2.13l.09.07 3 3a1 1 0 0 1-1.32 1.5l-.1-.08L13 13.4V17a1 1 0 0 1-2 .12V13.4l-1.3 1.3a1 1 0 0 1-1.49-1.32l.08-.1 3-3 .08-.07h.01l.02-.02.08-.05.04-.03.06-.03.05-.02a.99.99 0 0 1 .22-.06h.09l.04-.01H12zm3-7H9v2h6V3z"/>
</svg>
